X:1
T:Title
%%score { ( 1 3 ) | 2 }
L:1/8
M:4/4
K:Ab
V:1 treble nm="Grand Piano"
V:3 treble 
V:2 bass 
V:1
 z4 z2[Q:1/4=100] [A,C][B,D] | [CE]2 [DF][CE] [CA]2 [DG][DF] | [DF]4 [CE]2 [CE][B,E] | %3
 [EA]2 [CE][EA] c2 dc |[M:3/4] B6 |[M:1/4] C[B,D] |[M:4/4] [CE]2 [DF][CE] [CA]2 [DG][DF] | %7
 [DF]4 [CE]2 [CE][CA] | [Ec]2 [Ed][EB] [Ge]2 [B,EG][B,DG] | [A,CA]6 z2 | (3ccc c>B A2 CF | %11
 (3[A,C-E-][A,C-E-][A,C-E-] [CE]2 [CA]2 z2 | (3eee e>c A2 [CEA][Ec] | %13
[M:3/4] B2- [=DB-][FB-] [EB]2 |[M:3/8] d3 |[M:4/4] ce e>=d c2 GG | A[Fd] c>B A2 F2 | %17
 (3EEE [CA]>[Ec] [Ae]2 (3[EAc][GB][CEA] |[M:3/4] [DEB]4 [CEA]2 |] %19
V:2
 z4 z2 [A,,E,][A,,E,] | [A,,A,]2 [A,,A,][A,,A,] [A,,E,]2 [A,,E,][A,,F,] | %2
 [A,,A,]4 [A,,A,]2 [E,A,][D,G,] | [C,A,]2 [A,,A,][C,A,] [A,E]2 [G,B,E][A,E] |[M:3/4] [E,G,E]6 | %5
[M:1/4] [A,,E,A,][A,,E,] |[M:4/4] [A,,A,]2 [A,,A,][A,,A,] [A,,E,]2 [A,,E,][A,,F,] | %7
 [A,,A,]4 [A,,A,]2 [A,,A,][A,,E,] | [A,,A,]2 [E,B,][E,G,] [E,B,]2 E,E, | A,,6 z2 | %10
 (3EEE E>D C2[K:bass] A,D | (3A,,A,,A,, A,,>A,, [A,,E,]2 z2 | %12
 (3[A,CA][A,CA][A,CA] [A,CA]>[A,EA][K:bass] [A,CE]2 A,,[A,,A,] | %13
[M:3/4] [B,,G,]2 [B,,F,][B,,A,] [E,G,]2 |[M:3/8][K:treble] [G,B,E]3 | %15
[M:4/4] [G,CE][G,CG] [G,CG]>[G,_CF] [=CE]2 [CE][K:bass][B,DE] | %16
 [A,CE][D,A,] [E,A,E]>[E,G,D] [F,A,C]2 [D,A,D]2 | %17
 (3[E,G,B,][E,A,C][E,B,D] [A,,A,]>[A,,A,] [A,C]2 (3A,-[A,D]A, |[M:3/4] E,4 A,,2 |] %19
V:3
 x8 | x8 | x8 | x8 |[M:3/4] x6 |[M:1/4] x2 |[M:4/4] x8 | x8 | x8 | x8 | x8 | z2 A,>A, z4 | x8 | %13
[M:3/4] E2 z2 z2 |[M:3/8] x3 |[M:4/4] x8 | x8 | x8 |[M:3/4] x6 |] %19

